X:1
T:Title
%%score 1 2 3
L:1/8
Q:1/4=150
M:3/2
K:F
V:1 treble nm="Grand Piano, Track 1"
V:2 bass nm="Grand Piano, Melody"
V:3 bass nm="Grand Piano, Track 3"
V:1
 z4 z4 A4 | c2 c2 c4 d4 | c2 B2 A4 c4 | c2 A2 c4 =B4 | c8 A4 | c2 f2 f4 f4 | c2 c2 c4 c4 | %7
 f2 d2 c4 B4 | A12 |] %9
V:2
 z4 z4 F,4 | A,2 C2 A,4 G,4 | A,2 G,2 F,4 A,4 | C2 F2 E4 D4 | C8 C4 | A,2 C2 D4 C4 | %6
 B,2 A,2 G,4 C4 | C2 B,2 A,4 G,4 | F,12 |] %9
V:3
 z4 z4 F,4 | F,2 F,2 F,4 B,,4 | C,2 C,2 F,4 F,4 | E,2 D,2 G,4 G,4 | C,8 F,4 | F,2 A,2 B,4 A,4 | %6
 G,2 F,2 C,4 C,4 | F,2 B,,2 C,4 C,4 | F,12 |] %9

